src/assets/images/logo.svg

<?xml version="1.0" encoding="UTF-8"?>
<svg width="2390px" height="600px" viewBox="0 0 2390 600" version="1.1" xmlns="http://www.w3.org/2000/svg" xmlns:xlink="http://www.w3.org/1999/xlink">
    <!-- Generator: Sketch 47.1 (45422) - http://www.bohemiancoding.com/sketch -->
    <title>Logo white text</title>
    <desc>Created with Sketch.</desc>
    <defs></defs>
    <g id="Logos" stroke="none" stroke-width="1" fill="none" fill-rule="evenodd">
        <g id="Logo-white-text" fill="#FFFFFF">
            <g id="logo" transform="translate(82.000000, 53.000000)" fill-rule="nonzero">
                <path d="M96.2163238,173.107478 L75.2887981,168.667192 C74.8114647,168.565859 74.4834648,169.133859 74.8101314,169.496526 L89.4085001,185.720684 C82.4422194,200.340056 77.9784069,216.112101 76.2856331,232.344009 L33.9566658,246.113857 C33.0286658,246.416524 33.0286658,247.728524 33.9566658,248.029857 L76.2639172,261.792641 C78.2878581,281.628631 84.3933428,300.578691 94.1650643,317.660389 C97.1717309,322.915055 104.377064,323.836389 108.658397,319.555055 L108.690397,319.524389 C111.649064,316.564389 112.20773,312.001722 110.135731,308.365722 C99.8717308,290.371056 93.9757309,269.57639 93.9130643,247.433724 C93.7170643,179.144392 149.34773,123.165727 217.637061,122.949727 C239.609061,122.87906 260.275727,128.553727 278.22106,138.54706 C281.855726,140.57106 286.381059,139.992393 289.323726,137.049727 L289.325059,137.048393 C293.675726,132.69906 292.623726,125.416394 287.249059,122.421727 C270.527042,113.102481 252.05932,107.267836 232.753074,105.298619 L218.994528,63.0043951 C218.691861,62.0763951 217.379861,62.0763951 217.078528,63.0043951 L203.320177,105.298019 C184.647322,107.20135 166.757403,112.718946 150.473488,121.509342 L134.12013,106.793461 C133.757463,106.466794 133.189463,106.794794 133.289463,107.272127 L137.931904,129.146397 C129.930311,134.606404 122.422277,140.927989 115.52373,148.06306 C108.122325,155.718324 101.662288,164.128979 96.2163238,173.107478 Z M203.376768,388.851706 L217.077861,430.969319 C217.380528,431.897319 218.692528,431.897319 218.993861,430.969319 L232.694746,388.852348 C249.618047,387.134356 265.898694,382.448306 280.924519,375.048081 L296.760793,389.298654 C297.123459,389.623987 297.691459,389.295987 297.591459,388.819987 L293.217668,368.21154 C302.392452,362.493362 310.97832,355.683539 318.812792,347.849455 C327.202534,339.459297 334.417564,330.207373 340.375119,320.293246 L362.021191,324.885989 C362.498524,324.987322 362.826524,324.419322 362.499858,324.056655 L347.333563,307.201322 C353.945962,293.004359 358.169687,277.741949 359.796906,261.915221 L402.478923,248.030524 C403.406923,247.727857 403.406923,246.415857 402.478923,246.114524 L359.796989,232.229853 C357.5739,210.606459 350.503942,190.036467 339.116791,171.797459 C335.970125,166.758792 328.944792,165.968126 324.744792,170.168126 C321.710125,173.204126 321.159459,177.932126 323.430125,181.572125 C335.512792,200.941458 342.408791,223.865458 342.152791,248.384124 C341.456791,315.389455 287.070126,370.100121 220.070128,371.180121 C195.724795,371.572121 172.932796,364.909454 153.598129,353.114788 C149.964796,350.898788 145.284796,351.468121 142.275463,354.478788 C138.05413,358.698788 138.871463,365.774788 143.967463,368.885454 C161.956882,379.871931 182.16098,386.69605 203.376768,388.851706 Z M200.663062,488.603451 L17.7497328,382.99812 C6.88573311,376.726121 0.195066612,365.135454 0.195066612,352.592788 L0.195066612,141.382126 C0.195066612,128.838127 6.88573311,117.24746 17.7497328,110.975461 L200.663062,5.37012985 C211.525728,-0.900536662 224.909728,-0.900536662 235.772394,5.37012985 L418.687056,110.975461 C429.549723,117.24746 436.241722,128.838127 436.241722,141.382126 L436.241722,352.592788 C436.241722,365.135454 429.549723,376.726121 418.687056,382.99812 L235.772394,488.603451 C224.909728,494.875451 211.525728,494.875451 200.663062,488.603451 Z M240.480127,271.576123 L330.257458,135.600127 C331.889458,133.126793 328.942792,130.202793 326.481458,131.852127 L191.330795,222.460124 L100.813464,357.674788 C99.1654641,360.137454 102.093464,363.081454 104.564131,361.446788 L240.480127,271.576123 Z"></path>
            </g>
            <path d="M865.416976,433 L767.756976,258.96 L845.656976,167 L781.436976,167 L706.956976,257.82 C699.736976,266.56 689.856976,278.72 686.056976,284.8 C686.436976,276.44 686.816976,252.5 686.816976,242.62 L686.816976,167 L633.616976,167 L633.616976,433 L686.816976,433 L686.816976,354.72 L729.376976,304.56 L801.576976,433 L865.416976,433 Z M1065.50023,433 L1065.50023,233.5 L1013.06023,233.5 L1013.06023,342.56 C1013.06023,377.14 1000.52023,387.78 978.860232,387.78 C957.200232,387.78 945.040232,377.14 945.040232,341.42 L945.040232,233.5 L892.600232,233.5 L892.600232,345.98 C892.600232,402.22 915.400232,437.18 966.320232,437.18 C987.220232,437.18 1003.94023,429.2 1013.06023,419.7 L1013.06023,433 L1065.50023,433 Z M1284.58349,335.72 C1284.58349,395.38 1256.46349,437.18 1207.06349,437.18 C1189.58349,437.18 1174.38349,430.34 1164.88349,421.6 L1164.88349,433 L1112.44349,433 L1112.44349,182.2 L1164.88349,155.98 L1164.88349,246.04 C1174.76349,237.3 1188.06349,229.32 1207.06349,229.32 C1249.62349,229.32 1284.58349,261.24 1284.58349,335.72 Z M1231.38349,336.86 C1231.38349,295.82 1217.70349,278.72 1197.18349,278.72 C1180.84349,278.72 1172.48349,285.56 1164.88349,295.44 L1164.88349,370.68 C1172.86349,381.7 1185.02349,387.78 1200.22349,387.78 C1220.36349,387.78 1231.38349,370.3 1231.38349,336.86 Z M1484.66674,333.44 C1484.66674,341.04 1484.28674,346.36 1483.90674,350.16 L1364.58674,350.16 C1366.48674,377.52 1386.62674,387.78 1405.62674,387.78 C1420.06674,387.78 1432.22674,382.46 1439.82674,373.72 L1477.06674,404.88 C1461.10674,425.4 1432.22674,437.18 1405.62674,437.18 C1348.24674,437.18 1311.76674,396.52 1311.76674,333.44 C1311.76674,272.26 1350.14674,229.32 1400.68674,229.32 C1453.88674,229.32 1484.66674,276.44 1484.66674,333.44 Z M1433.74674,310.64 C1432.22674,292.78 1421.58674,274.92 1398.02674,274.92 C1379.02674,274.92 1367.24674,290.5 1365.34674,310.64 L1433.74674,310.64 Z M1684.75,433 L1632.31,433 L1632.31,419.7 C1622.81,429.58 1606.09,437.18 1587.47,437.18 C1550.23,437.18 1512.99,414.38 1512.99,366.12 C1512.99,322.04 1548.71,300 1593.93,300 C1612.17,300 1623.95,303.8 1632.31,307.98 L1632.31,298.1 C1632.31,284.04 1622.81,272.64 1603.81,272.64 C1579.87,272.64 1567.33,276.06 1549.09,285.94 L1528.95,249.46 C1552.13,236.16 1571.51,229.32 1603.81,229.32 C1652.07,229.32 1684.75,254.4 1684.75,299.24 L1684.75,433 Z M1632.31,374.48 L1632.31,349.4 C1623.19,343.7 1614.45,341.04 1595.83,341.04 C1576.07,341.04 1565.43,350.16 1565.43,366.12 C1565.43,380.18 1573.41,392.72 1595.83,392.72 C1612.93,392.72 1626.61,383.98 1632.31,374.48 Z M1901.93326,335.72 C1901.93326,395.38 1873.81326,437.18 1824.41326,437.18 C1806.93326,437.18 1791.73326,430.34 1782.23326,421.6 L1782.23326,480.12 L1729.79326,506.34 L1729.79326,233.5 L1782.23326,233.5 L1782.23326,246.04 C1792.11326,237.3 1805.41326,229.32 1824.41326,229.32 C1866.97326,229.32 1901.93326,261.24 1901.93326,335.72 Z M1848.73326,336.86 C1848.73326,295.82 1835.05326,278.72 1814.53326,278.72 C1798.19326,278.72 1789.83326,285.56 1782.23326,295.44 L1782.23326,370.68 C1790.21326,381.7 1802.37326,387.78 1817.57326,387.78 C1837.71326,387.78 1848.73326,370.3 1848.73326,336.86 Z M2111.51651,335.72 C2111.51651,395.38 2083.39651,437.18 2033.99651,437.18 C2016.51651,437.18 2001.31651,430.34 1991.81651,421.6 L1991.81651,480.12 L1939.37651,506.34 L1939.37651,233.5 L1991.81651,233.5 L1991.81651,246.04 C2001.69651,237.3 2014.99651,229.32 2033.99651,229.32 C2076.55651,229.32 2111.51651,261.24 2111.51651,335.72 Z M2058.31651,336.86 C2058.31651,295.82 2044.63651,278.72 2024.11651,278.72 C2007.77651,278.72 1999.41651,285.56 1991.81651,295.44 L1991.81651,370.68 C1999.79651,381.7 2011.95651,387.78 2027.15651,387.78 C2047.29651,387.78 2058.31651,370.3 2058.31651,336.86 Z M2306.65977,374.86 C2306.65977,334.96 2275.87977,322.04 2240.15977,310.26 C2204.81977,298.86 2198.73977,295.44 2198.73977,287.08 C2198.73977,278.34 2204.43977,274.16 2225.71977,274.16 C2242.43977,274.16 2264.09977,279.48 2283.85977,290.12 L2300.57977,248.7 C2279.29977,236.92 2251.93977,229.32 2226.85977,229.32 C2180.11977,229.32 2147.05977,247.18 2147.05977,288.6 C2147.05977,330.78 2177.83977,342.56 2225.71977,357 C2247.75977,363.46 2254.97977,368.02 2254.97977,377.14 C2254.97977,387.4 2248.89977,392.34 2228.37977,392.34 C2202.91977,392.34 2180.49977,385.88 2159.21977,374.1 L2141.73977,414 C2163.01977,428.06 2193.79977,437.18 2225.33977,437.18 C2270.17977,437.18 2306.65977,420.84 2306.65977,374.86 Z" id="Kubeapps"></path>
        </g>
    </g>
</svg>

<svg width="2390" height="600" viewBox="0 0 2390 600" xmlns="http://www.w3.org/2000/svg"><title>Logo white text</title><g fill="#FFF" fill-rule="evenodd"><path d="M178.216 226.107l-20.927-4.44a.503.503 0 0 0-.479.83l14.599 16.224a142.872 142.872 0 0 0-13.123 46.623l-42.33 13.77c-.927.303-.927 1.615 0 1.916l42.308 13.763c2.024 19.836 8.13 38.786 17.901 55.867 3.007 5.255 10.212 6.176 14.493 1.895l.032-.03c2.96-2.96 3.518-7.523 1.446-11.16-10.264-17.994-16.16-38.789-16.223-60.931-.196-68.29 55.435-124.268 123.724-124.484 21.972-.07 42.639 5.604 60.584 15.597 3.635 2.024 8.16 1.445 11.103-1.497l.001-.002c4.35-4.349 3.299-11.632-2.076-14.626-16.722-9.32-35.19-15.154-54.496-17.123l-13.758-42.295c-.303-.928-1.615-.928-1.916 0l-13.759 42.294c-18.673 1.903-36.563 7.42-52.847 16.211l-16.353-14.716a.504.504 0 0 0-.83.48l4.642 21.873a144.308 144.308 0 0 0-22.408 18.917 141.889 141.889 0 0 0-19.308 25.044zm107.16 215.745l13.702 42.117c.303.928 1.615.928 1.916 0l13.7-42.117c16.924-1.718 33.205-6.404 48.23-13.804l15.837 14.25a.505.505 0 0 0 .83-.478l-4.373-20.608a143.649 143.649 0 0 0 25.595-20.363c8.39-8.39 15.605-17.642 21.562-27.556l21.646 4.593a.503.503 0 0 0 .479-.83l-15.166-16.855c6.612-14.197 10.836-29.46 12.463-45.286l42.682-13.884c.928-.303.928-1.615 0-1.916l-42.682-13.885c-2.223-21.624-9.293-42.194-20.68-60.433-3.147-5.038-10.172-5.829-14.372-1.629a9.228 9.228 0 0 0-1.315 11.404c12.083 19.37 18.979 42.293 18.723 66.812C423.457 368.39 369.07 423.1 302.07 424.18c-24.345.392-47.137-6.27-66.472-18.065a9.223 9.223 0 0 0-11.323 1.364c-4.22 4.22-3.404 11.296 1.692 14.406 17.99 10.987 38.194 17.811 59.41 19.967zm-2.713 99.751L99.75 435.998a35.108 35.108 0 0 1-17.555-30.405v-211.21a35.108 35.108 0 0 1 17.555-30.408L282.663 58.37a35.114 35.114 0 0 1 35.11 0l182.914 105.605a35.111 35.111 0 0 1 17.555 30.407v211.21a35.11 35.11 0 0 1-17.555 30.406L317.772 541.603a35.108 35.108 0 0 1-35.109 0zm39.817-217.027L412.257 188.6c1.632-2.473-1.314-5.397-3.776-3.748l-135.15 90.608-90.518 135.215c-1.648 2.462 1.28 5.406 3.751 3.772l135.916-89.87z" fill-rule="nonzero"/><path d="M865.417 433l-97.66-174.04 77.9-91.96h-64.22l-74.48 90.82c-7.22 8.74-17.1 20.9-20.9 26.98.38-8.36.76-32.3.76-42.18V167h-53.2v266h53.2v-78.28l42.56-50.16 72.2 128.44h63.84zm200.083 0V233.5h-52.44v109.06c0 34.58-12.54 45.22-34.2 45.22-21.66 0-33.82-10.64-33.82-46.36V233.5H892.6v112.48c0 56.24 22.8 91.2 73.72 91.2 20.9 0 37.62-7.98 46.74-17.48V433h52.44zm219.083-97.28c0 59.66-28.12 101.46-77.52 101.46-17.48 0-32.68-6.84-42.18-15.58V433h-52.44V182.2l52.44-26.22v90.06c9.88-8.74 23.18-16.72 42.18-16.72 42.56 0 77.52 31.92 77.52 106.4zm-53.2 1.14c0-41.04-13.68-58.14-34.2-58.14-16.34 0-24.7 6.84-32.3 16.72v75.24c7.98 11.02 20.14 17.1 35.34 17.1 20.14 0 31.16-17.48 31.16-50.92zm253.284-3.42c0 7.6-.38 12.92-.76 16.72h-119.32c1.9 27.36 22.04 37.62 41.04 37.62 14.44 0 26.6-5.32 34.2-14.06l37.24 31.16c-15.96 20.52-44.84 32.3-71.44 32.3-57.38 0-93.86-40.66-93.86-103.74 0-61.18 38.38-104.12 88.92-104.12 53.2 0 83.98 47.12 83.98 104.12zm-50.92-22.8c-1.52-17.86-12.16-35.72-35.72-35.72-19 0-30.78 15.58-32.68 35.72h68.4zM1684.75 433h-52.44v-13.3c-9.5 9.88-26.22 17.48-44.84 17.48-37.24 0-74.48-22.8-74.48-71.06 0-44.08 35.72-66.12 80.94-66.12 18.24 0 30.02 3.8 38.38 7.98v-9.88c0-14.06-9.5-25.46-28.5-25.46-23.94 0-36.48 3.42-54.72 13.3l-20.14-36.48c23.18-13.3 42.56-20.14 74.86-20.14 48.26 0 80.94 25.08 80.94 69.92V433zm-52.44-58.52V349.4c-9.12-5.7-17.86-8.36-36.48-8.36-19.76 0-30.4 9.12-30.4 25.08 0 14.06 7.98 26.6 30.4 26.6 17.1 0 30.78-8.74 36.48-18.24zm269.623-38.76c0 59.66-28.12 101.46-77.52 101.46-17.48 0-32.68-6.84-42.18-15.58v58.52l-52.44 26.22V233.5h52.44v12.54c9.88-8.74 23.18-16.72 42.18-16.72 42.56 0 77.52 31.92 77.52 106.4zm-53.2 1.14c0-41.04-13.68-58.14-34.2-58.14-16.34 0-24.7 6.84-32.3 16.72v75.24c7.98 11.02 20.14 17.1 35.34 17.1 20.14 0 31.16-17.48 31.16-50.92zm262.784-1.14c0 59.66-28.12 101.46-77.52 101.46-17.48 0-32.68-6.84-42.18-15.58v58.52l-52.44 26.22V233.5h52.44v12.54c9.88-8.74 23.18-16.72 42.18-16.72 42.56 0 77.52 31.92 77.52 106.4zm-53.2 1.14c0-41.04-13.68-58.14-34.2-58.14-16.34 0-24.7 6.84-32.3 16.72v75.24c7.98 11.02 20.14 17.1 35.34 17.1 20.14 0 31.16-17.48 31.16-50.92zm248.343 38c0-39.9-30.78-52.82-66.5-64.6-35.34-11.4-41.42-14.82-41.42-23.18 0-8.74 5.7-12.92 26.98-12.92 16.72 0 38.38 5.32 58.14 15.96l16.72-41.42c-21.28-11.78-48.64-19.38-73.72-19.38-46.74 0-79.8 17.86-79.8 59.28 0 42.18 30.78 53.96 78.66 68.4 22.04 6.46 29.26 11.02 29.26 20.14 0 10.26-6.08 15.2-26.6 15.2-25.46 0-47.88-6.46-69.16-18.24l-17.48 39.9c21.28 14.06 52.06 23.18 83.6 23.18 44.84 0 81.32-16.34 81.32-62.32z"/></g></svg>
